content/consul/v1.21.x/img/homepage/hashiconf-global-logo.svg

<svg width="232" height="26" viewBox="0 0 232 26" fill="none" xmlns="http://www.w3.org/2000/svg">
<path d="M13.7786 11.2556H4.74726V1.46338H0V25.4373H4.74726V15.3075H13.7786V25.4373H18.5259V1.46338H13.7786V11.2556Z" fill="white"/>
<path d="M31.61 24.1991L31.9574 25.4372H35.6626V13.8442C35.6626 9.45455 33.9258 7.54114 28.368 7.54114C26.3996 7.54114 23.8523 7.8788 22.2313 8.32901L22.8102 11.7056C24.4312 11.368 26.168 11.1429 27.9048 11.1429C30.7995 11.1429 31.3784 11.8182 31.3784 13.8442V15.7576H26.9785C23.2734 15.7576 21.6523 17.1082 21.6523 20.7099C21.6523 23.7489 23.0418 26 26.3996 26C28.0206 25.7749 29.989 25.3246 31.61 24.1991ZM27.789 18.9091H31.1469V21.4978C30.3364 21.948 29.0627 22.3982 27.6733 22.3982C26.2838 22.3982 25.8207 21.8355 25.8207 20.5974C26.0522 19.2467 26.3996 18.9091 27.789 18.9091Z" fill="white"/>
<path d="M44.4623 22.173C42.6097 22.173 40.5256 21.8354 39.0203 21.3851L38.4414 24.7618C40.1782 25.3245 42.7255 25.7747 44.5781 25.7747C50.0201 25.7747 51.0622 23.6362 51.0622 20.3721C51.0622 16.7704 50.599 16.0951 45.5044 14.857C43.0729 14.2942 42.9571 14.1817 42.9571 12.7185C42.9571 11.5929 43.3045 11.1427 45.2728 11.1427C46.6623 11.1427 48.8622 11.3678 50.2517 11.7055L50.7148 8.21633C49.0938 7.76612 46.8938 7.65356 45.2728 7.65356C40.0624 7.65356 38.5572 9.22932 38.5572 12.831C38.5572 16.2077 39.1361 17.3332 43.536 18.2336C46.5465 18.9089 46.6623 19.4717 46.6623 20.5973C46.7781 21.7228 46.4307 22.173 44.4623 22.173Z" fill="white"/>
<path d="M64.7251 13.1689V25.4373H69.2408V12.7187C69.2408 9.5672 68.1988 7.54123 65.0725 7.54123C63.1041 7.54123 60.441 8.21655 58.5884 9.22954V0.112671L54.0728 0.67544V25.4373H58.5884V13.2815C60.2095 12.4936 62.1778 11.8183 63.3357 11.8183C64.3778 11.8183 64.7251 12.2685 64.7251 13.1689Z" fill="white"/>
<path d="M77.23 7.99121H72.7144V25.4371H77.23V7.99121Z" fill="white"/>
<path d="M77.23 0.337646H72.7144V5.51512H77.23V0.337646Z" fill="white"/>
<path d="M89.504 5.17767C91.2408 5.17767 93.5565 5.40278 95.5249 5.74044L96.1038 1.80106C94.0197 1.35084 91.5881 1.12573 89.3882 1.12573C83.2515 1.12573 80.5884 3.71447 80.5884 7.99152V18.7967C80.5884 23.1863 83.2515 25.6625 89.3882 25.6625C91.7039 25.6625 94.1354 25.3248 95.988 24.8746L95.4091 21.0478C93.4407 21.3854 91.0092 21.6105 89.3882 21.6105C86.1462 21.6105 85.1041 20.485 85.1041 17.8963V8.7794C85.2199 6.30321 86.2619 5.17767 89.504 5.17767Z" fill="white"/>
<path d="M105.598 7.54114C99.4609 7.54114 97.8398 10.9178 97.8398 14.4069V18.9091C97.8398 22.5108 99.5767 25.7749 105.598 25.7749C111.618 25.7749 113.355 22.3982 113.355 18.9091V14.4069C113.355 10.8052 111.734 7.54114 105.598 7.54114ZM108.84 19.0216C108.84 21.0476 107.913 22.0606 105.482 22.0606C103.05 22.0606 102.124 21.0476 102.124 19.0216V14.2944C102.124 12.2684 103.05 11.2554 105.482 11.2554C107.913 11.2554 108.84 12.2684 108.84 14.2944V19.0216Z" fill="white"/>
<path d="M127.366 7.54114C125.281 7.54114 122.387 8.32902 120.187 9.342L119.724 7.8788H116.25V25.3246H120.766V13.2814C122.387 12.4935 124.355 11.8182 125.513 11.8182C126.555 11.8182 127.018 12.2684 127.018 13.2814V25.5498H131.534V12.7186C131.418 9.56711 130.376 7.54114 127.366 7.54114Z" fill="white"/>
<path d="M142.65 3.60172C143.344 3.60172 144.387 3.71428 145.313 3.93938L145.776 0.562769C144.618 0.225108 143.229 0 141.839 0C137.787 0 136.166 1.80086 136.166 5.40259V7.87877H133.271V11.3679H136.166V25.4372H140.681V11.3679H145.081L145.313 7.87877H140.681V5.62769C140.681 4.3896 140.913 3.60172 142.65 3.60172Z" fill="white"/>
<path d="M172.87 25.4374H174.954V1.12573L172.87 1.35084V25.4374Z" fill="white"/>
<path d="M185.491 8.10388C180.512 8.10388 178.775 10.8052 178.775 14.2943V19.6969C178.775 23.1861 180.627 25.8874 185.491 25.8874C190.469 25.8874 192.206 23.1861 192.206 19.6969V14.2943C192.438 10.6926 190.469 8.10388 185.491 8.10388ZM190.238 19.5844C190.238 22.5108 188.733 23.974 185.491 23.974C182.133 23.974 180.743 22.5108 180.743 19.5844V14.1818C180.743 11.2554 182.249 9.79219 185.491 9.79219C188.848 9.79219 190.238 11.2554 190.238 14.1818V19.5844Z" fill="white"/>
<path d="M204.016 8.1037C201.584 8.1037 199.616 8.66647 198.342 9.45435V1.23792L196.258 1.57558V25.3244C197.879 25.6621 200.658 25.9998 202.048 25.9998C207.374 25.9998 208.995 23.7487 208.995 20.0344V13.2812C208.995 9.90456 207.49 8.1037 204.016 8.1037ZM206.911 19.8093C206.911 22.398 205.984 23.9738 202.163 23.9738C200.89 23.9738 199.5 23.8612 198.111 23.6361V11.4803C199.732 10.5799 201.469 10.0171 203.669 10.0171C205.984 10.0171 206.911 10.9175 206.911 13.0561V19.8093Z" fill="white"/>
<path d="M218.374 8.10388C216.521 8.10388 214.321 8.44154 212.932 8.77921L213.279 10.4675C214.9 10.1299 216.753 9.90474 218.489 9.90474C221.384 9.90474 222.658 10.6926 222.658 13.0563V16.4329H217.447C213.974 16.4329 212.237 17.5584 212.237 21.1601C212.237 24.1991 213.742 25.9999 216.868 25.9999C219.184 25.9999 221.152 25.3246 222.773 24.3116L222.889 25.6623H224.742V12.9437C224.742 9.67963 223.005 8.10388 218.374 8.10388ZM222.658 22.1731C221.037 23.2987 218.952 23.974 217.216 23.974C214.784 23.974 214.321 23.0735 214.321 21.0476C214.321 18.7965 215.016 18.1212 217.447 18.1212H222.658V22.1731Z" fill="white"/>
<path d="M229.026 25.4374H231.111V1.12573L229.026 1.35084V25.4374Z" fill="white"/>
<path d="M162.449 16.7705H166.27V23.4111C164.765 23.7488 162.681 23.9739 161.175 23.9739C156.66 23.9739 155.502 22.3981 155.502 18.909V8.55402C155.502 4.9523 156.891 3.4891 161.291 3.4891C163.375 3.4891 165.691 3.71421 167.544 4.05187L167.775 2.25101C165.923 1.91334 163.144 1.57568 161.175 1.57568C155.386 1.57568 153.186 4.05187 153.186 8.32891V18.7964C153.186 23.186 155.039 25.5497 160.828 25.5497C163.144 25.5497 165.923 25.212 168.123 24.5367V16.5453V14.4068H162.333L162.449 16.7705Z" fill="white"/>
</svg>

<svg xmlns="http://www.w3.org/2000/svg" width="232" height="26" fill="none" viewBox="0 0 232 26">
  <path fill="#fff" d="M13.779 11.256H4.747V1.463H0v23.974h4.747v-10.13h9.032v10.13h4.747V1.463h-4.747zM31.61 24.2l.347 1.237h3.706V13.844c0-4.39-1.737-6.303-7.295-6.303-1.968 0-4.516.338-6.137.788l.58 3.377c1.62-.338 3.357-.563 5.094-.563 2.894 0 3.473.675 3.473 2.701v1.914h-4.4c-3.705 0-5.326 1.35-5.326 4.952 0 3.039 1.39 5.29 4.748 5.29 1.62-.225 3.589-.675 5.21-1.8m-3.821-5.29h3.358v2.588c-.81.45-2.084.9-3.474.9s-1.852-.562-1.852-1.8c.231-1.351.579-1.689 1.968-1.689m16.673 3.264c-1.852 0-3.936-.338-5.442-.788l-.579 3.377c1.737.563 4.284 1.013 6.137 1.013 5.442 0 6.484-2.139 6.484-5.403 0-3.602-.463-4.277-5.558-5.515-2.431-.563-2.547-.675-2.547-2.138 0-1.126.347-1.576 2.316-1.576 1.39 0 3.59.225 4.979.563l.463-3.49c-1.621-.45-3.821-.562-5.442-.562-5.21 0-6.716 1.575-6.716 5.177 0 3.377.58 4.502 4.979 5.403 3.01.675 3.126 1.238 3.126 2.363.116 1.126-.231 1.576-2.2 1.576m20.263-9.004v12.268h4.516V12.72c0-3.152-1.042-5.178-4.168-5.178-1.969 0-4.632.676-6.485 1.689V.113l-4.515.562v24.762h4.515V13.281c1.621-.787 3.59-1.463 4.748-1.463 1.042 0 1.39.45 1.39 1.35M77.23 7.991h-4.516v17.446h4.516zm0-7.653h-4.516v5.177h4.516zm12.274 4.84c1.737 0 4.052.225 6.02.562l.58-3.939c-2.084-.45-4.516-.675-6.716-.675-6.137 0-8.8 2.588-8.8 6.866v10.805c0 4.39 2.663 6.866 8.8 6.866 2.316 0 4.747-.338 6.6-.788l-.579-3.827c-1.968.337-4.4.563-6.02.563-3.243 0-4.285-1.126-4.285-3.715V8.78c.116-2.476 1.158-3.601 4.4-3.601m16.094 2.362c-6.137 0-7.758 3.377-7.758 6.866v4.502c0 3.602 1.737 6.866 7.758 6.866 6.02 0 7.757-3.377 7.757-6.866v-4.502c0-3.602-1.621-6.866-7.757-6.866m3.242 11.48c0 2.027-.927 3.04-3.358 3.04s-3.358-1.013-3.358-3.04v-4.727c0-2.026.926-3.039 3.358-3.039s3.358 1.013 3.358 3.04zm18.526-11.48c-2.085 0-4.979.788-7.179 1.801l-.463-1.463h-3.474v17.446h4.516V13.28c1.621-.788 3.589-1.463 4.747-1.463 1.042 0 1.505.45 1.505 1.463v12.27h4.516V12.719c-.116-3.152-1.158-5.178-4.168-5.178m15.284-3.939c.694 0 1.737.112 2.663.337l.463-3.376A14.4 14.4 0 0 0 141.839 0c-4.052 0-5.673 1.8-5.673 5.403v2.476h-2.895v3.489h2.895v14.07h4.515v-14.07h4.4l.232-3.49h-4.632v-2.25c0-1.238.232-2.026 1.969-2.026m30.22 21.835h2.084V1.126l-2.084.225zm12.621-17.333c-4.979 0-6.716 2.701-6.716 6.19v5.403c0 3.49 1.852 6.19 6.716 6.19 4.978 0 6.715-2.7 6.715-6.19v-5.403c.232-3.601-1.737-6.19-6.715-6.19m4.747 11.48c0 2.927-1.505 4.39-4.747 4.39-3.358 0-4.748-1.463-4.748-4.39v-5.402c0-2.927 1.506-4.39 4.748-4.39 3.357 0 4.747 1.463 4.747 4.39zm13.778-11.48c-2.432 0-4.4.562-5.674 1.35V1.238l-2.084.338v23.748c1.621.338 4.4.676 5.79.676 5.326 0 6.947-2.251 6.947-5.966v-6.753c0-3.376-1.505-5.177-4.979-5.177m2.895 11.705c0 2.589-.927 4.165-4.748 4.165-1.273 0-2.663-.113-4.052-.338V11.48c1.621-.9 3.358-1.463 5.558-1.463 2.315 0 3.242.9 3.242 3.04zm11.463-11.705c-1.853 0-4.053.338-5.442.675l.347 1.688c1.621-.337 3.474-.562 5.21-.562 2.895 0 4.169.788 4.169 3.151v3.377h-5.211c-3.473 0-5.21 1.125-5.21 4.727 0 3.04 1.505 4.84 4.631 4.84 2.316 0 4.284-.675 5.905-1.688l.116 1.35h1.853V12.944c0-3.264-1.737-4.84-6.368-4.84m4.284 14.07c-1.621 1.125-3.706 1.8-5.442 1.8-2.432 0-2.895-.9-2.895-2.926 0-2.251.695-2.927 3.126-2.927h5.211zm6.368 3.263h2.085V1.126l-2.085.225zm-66.577-8.667h3.821v6.641c-1.505.338-3.589.563-5.095.563-4.515 0-5.673-1.576-5.673-5.065V8.554c0-3.602 1.389-5.065 5.789-5.065 2.084 0 4.4.225 6.253.563l.231-1.801c-1.852-.338-4.631-.675-6.6-.675-5.789 0-7.989 2.476-7.989 6.753v10.467c0 4.39 1.853 6.754 7.642 6.754 2.316 0 5.095-.338 7.295-1.013v-10.13h-5.79z"/>
</svg>
